build/category/ReceiptFavoritesOutline.svg

<svg xmlns="http://www.w3.org/2000/svg" fill="none" viewBox="0 0 24 24" focusable="false"><path d="M0 0H24V24H0z"/><path fill="#74767B" fill-rule="evenodd" d="M8.74383 18.4112C9.2034 18.1106 9.80235 18.1311 10.2402 18.4626L11.7601 19.6132C11.9024 19.7209 12.0988 19.7213 12.2415 19.6143L13.1889 18.904C13.5033 18.6683 13.9533 18.7633 14.1456 19.106C14.3051 19.3902 14.2295 19.7486 13.9687 19.9442L13.0213 20.6544C12.4146 21.1093 11.58 21.1074 10.9755 20.6497L9.45556 19.4991L7.54218 20.7509C7.27482 20.9258 6.96227 21.019 6.64278 21.019C5.7355 21.019 5 20.2835 5 19.3762L5 6C5 4.34315 6.34315 3 8 3L16 3C17.6569 3 19 4.34315 19 6L19 12.0458C19 12.4048 18.709 12.6958 18.35 12.6958C17.991 12.6958 17.7 12.4048 17.7 12.0458L17.7 6C17.7 5.06112 16.9389 4.3 16 4.3L8 4.3C7.06112 4.3 6.3 5.06112 6.3 6L6.3 19.3762C6.3 19.5655 6.45347 19.719 6.64278 19.719C6.70944 19.719 6.77466 19.6996 6.83045 19.6631L8.74383 18.4112ZM8.01855 7.6429C8.01855 7.28392 8.30957 6.9929 8.66855 6.9929L15.3686 6.9929C15.7275 6.9929 16.0186 7.28392 16.0186 7.6429C16.0186 8.00189 15.7275 8.2929 15.3686 8.2929L8.66855 8.2929C8.30957 8.2929 8.01855 8.00189 8.01855 7.6429ZM8.66855 9.99207C8.30957 9.99207 8.01855 10.2831 8.01855 10.6421C8.01855 11.001 8.30957 11.2921 8.66855 11.2921L15.3686 11.2921C15.7275 11.2921 16.0186 11.001 16.0186 10.6421C16.0186 10.2831 15.7275 9.99207 15.3686 9.99207L8.66855 9.99207ZM8.66855 12.9912C8.30957 12.9912 8.01855 13.2822 8.01855 13.6412C8.01855 14.0002 8.30957 14.2912 8.66856 14.2912L11.8755 14.2912C12.2345 14.2912 12.5255 14.0002 12.5255 13.6412C12.5255 13.2822 12.2345 12.9912 11.8755 12.9912L8.66855 12.9912ZM18.6149 14.1358L19.7192 15.9708L21.8057 16.454C22.026 16.5051 22.1128 16.7722 21.9645 16.943L20.5606 18.5603L20.7457 20.694C20.7653 20.9193 20.5381 21.0844 20.3298 20.9962L18.3578 20.1607L16.3858 20.9962C16.1776 21.0844 15.9503 20.9193 15.9699 20.694L16.1551 18.5603L14.7511 16.943C14.6029 16.7722 14.6897 16.5051 14.91 16.454L16.9964 15.9708L18.1008 14.1358C18.2174 13.942 18.4983 13.942 18.6149 14.1358ZM19.8935 17.3456L18.8893 17.113L18.3578 16.2298L17.8263 17.113L16.8221 17.3456L17.4978 18.124L17.4087 19.151L18.3578 18.7488L19.3069 19.151L19.2178 18.124L19.8935 17.3456Z"/></svg>

<svg xmlns="http://www.w3.org/2000/svg" fill="none" viewBox="0 0 24 24" focusable="false"><path fill="#74767B" fill-rule="evenodd" d="M10.24 18.46a1.31 1.31 0 0 0-1.5-.05l-1.91 1.25c-.06.03-.13.05-.19.05-.19 0-.35-.15-.35-.34V6c0-.94.77-1.7 1.71-1.7h8c.93 0 1.7.76 1.7 1.7v6.04c0 .36.29.65.65.65.35 0 .65-.29.65-.65V6c0-1.66-1.35-3-3-3H8C6.34 3 5 4.34 5 6v13.37c0 .91.73 1.64 1.64 1.64.32 0 .63-.09.9-.26l1.91-1.26 1.52 1.15c.61.46 1.44.46 2.05.01l.94-.71c.26-.2.34-.55.18-.84a.65.65 0 0 0-.96-.2l-.94.71a.39.39 0 0 1-.48 0zM8.01 7.64c0-.36.29-.65.65-.65h6.7c.36 0 .65.29.65.65s-.29.65-.65.65h-6.7c-.36 0-.65-.29-.65-.65m.65 2.35c-.36 0-.65.29-.65.65s.29.65.65.65h6.7c.36 0 .65-.29.65-.65s-.29-.65-.65-.65zm0 3c-.36 0-.65.29-.65.65s.29.65.65.65h3.21c.36 0 .65-.29.65-.65s-.29-.65-.65-.65zm9.95 1.14 1.1 1.84 2.09.48a.3.3 0 0 1 .16.49l-1.4 1.62.18 2.13c.02.22-.21.39-.41.3l-1.98-.83-1.97.83c-.21.09-.43-.08-.42-.3l.19-2.13-1.4-1.62a.297.297 0 0 1 .16-.49l2.08-.48 1.11-1.84c.11-.19.39-.19.51 0m1.28 3.21-1.01-.23-.53-.89-.53.89-1 .23.67.78-.09 1.03.95-.41.95.41-.09-1.03z"/></svg>
